X:1
T:Title
%%score ( 1 2 3 ) { 4 | 5 }
L:1/8
Q:1/4=117
M:3/4
K:G
V:1 treble nm="Grand Piano, Staff 1"
V:2 treble 
V:3 treble 
V:4 treble nm="Choir Pad, Salus Mortalium, 88.84.8"
V:5 bass 
V:1
 [Fd]2 [DB]4 | [DG]2 [FA]4 | [GB]2 [Ac]2 [GB]2 | [FA]2 G4 | [Gd]2 [Ge]4 | [Fd]2 c2- [Ac]2 | z2 A4 | %7
w: By~Gesangbuch~(Erfurt,~Germany:~1663) *|||||||
 z6 | D2 [G,E]4 | z2 G4 | [FA]2 [GB]4 | [Gc]2 d2- [Fd]2 | [Fc]2 [GB]2 AG | [FA]2 G4 | D2 [CE]4 | %15
w: ||||||||
 z2 G4 | z2 z2 .A2 | [FA]2 G4- | G4 z2 |] %19
w: ||||
V:2
 x6 | x6 | x6 | x6 | x6 | z2 G2 z2 | [GB]2 E2 z2 | ^G2 [EA]4 | x6 | [CF]2 B,2 E2 | x6 | z2 G2 z2 | %12
 z2 z2 E2 | x6 | x6 | [CF]2 B,2 E2 | [Dd]2 [DB]2 D-[DG] | x6 | x6 |] %19
V:3
 x6 | x6 | x6 | x6 | x6 | x6 | z2 z2 E2- | E2 z2 z2 | x6 | x6 | x6 | x6 | x6 | x6 | x6 | x6 | x6 | %17
 x6 | x6 |] %19
V:4
 A,2 B,4 | D2 D4 | D2 E2 D2 | C2[K:bass] B,4 | B,2 C2 B,2 | A,2[K:treble] E2 D2 | D2 C2 B,2- | %7
 B,2 C4 | F,2 G,4 | A,2 G,2 B,2 | D2 D4 | E2 A,4 | C2 D2[K:bass] B,2 | C2 B,4 | D2 G,4 | A,2 G,4 | %16
 A,2 B,2 D2 | C2 B,4- | B,4 z2 |] %19
V:5
 D,2 G,4 | B,,2 D,2 C,2 | B,,2 A,,2 D,2- | D,2 G,,4 | G,2 C,4 | D,2 E,2 F,2 | G,2 A,2 E,2- | %7
 E,2 A,,4 | D,2 C,2 B,,2 | A,,2 E,4 | D,2 G,2 F,2 | E,2 D,4 | A,,2 B,,2 E,2 | D,2 G,4 | %14
 B,,2 C,2 B,,2 | A,,2 E,4 | F,2 G,2 B,,2 | D,2 G,,4- | G,,4 z2 |] %19

